icons/square-info.svg

<svg xmlns="http://www.w3.org/2000/svg" width="24" height="24" viewBox="0 0 24 24">
  <path d="M20,2 C21.1045695,2 22,2.8954305 22,4 L22,4 L22,20 C22,21.1045695 21.1045695,22 20,22 L20,22 L4,22 C2.8954305,22 2,21.1045695 2,20 L2,20 L2,4 C2,2.8954305 2.8954305,2 4,2 L4,2 Z M12,11 C11.4477153,11 11,11.4477153 11,12 L11,17 C11,17.5522847 11.4477153,18 12,18 C12.5522847,18 13,17.5522847 13,17 L13,12 C13,11.4477153 12.5522847,11 12,11 Z M12,6 C11.1715729,6 10.5,6.67157288 10.5,7.5 C10.5,8.32842712 11.1715729,9 12,9 C12.8284271,9 13.5,8.32842712 13.5,7.5 C13.5,6.67157288 12.8284271,6 12,6 Z"/>
</svg>

<svg xmlns="http://www.w3.org/2000/svg" viewBox="0 0 24 24">
  <path d="M20 2a2 2 0 0 1 2 2v16a2 2 0 0 1-2 2H4a2 2 0 0 1-2-2V4c0-1.1.9-2 2-2zm-8 9a1 1 0 0 0-1 1v5a1 1 0 0 0 2 0v-5a1 1 0 0 0-1-1zm0-5a1.5 1.5 0 1 0 0 3 1.5 1.5 0 0 0 0-3z"/>
</svg>
